public/assets/techs/socket-io.svg

<svg width="20" height="20" viewBox="0 0 20 20" fill="none" xmlns="http://www.w3.org/2000/svg">
<g clip-path="url(#clip0_310_4)">
<path d="M9.94813 0.0131177C9.11125 0.0162427 8.27813 0.120618 7.4675 0.328743C3.5675 1.29874 0.471878 4.83062 0.0750026 8.83687C-0.416872 12.6262 1.50063 16.575 4.77813 18.5312C7.99813 20.5462 12.3563 20.4656 15.5075 18.3462C18.34 16.5069 20.1006 13.1569 19.9969 9.77437C19.9488 6.42874 18.07 3.17624 15.195 1.45749C13.6294 0.490618 11.7875 0.00561773 9.94813 0.0124927V0.0131177ZM9.8925 1.42562C14.0131 1.41874 18.05 4.60562 18.4631 8.86374C19.2513 13.5806 15.335 18.3756 10.5563 18.5156C6.01188 18.9681 1.61688 15.1137 1.48688 10.55C1.14875 6.85562 3.58688 3.18687 7.06938 1.96562C7.9675 1.60812 8.925 1.42562 9.89188 1.42874L9.8925 1.42562ZM14.1375 4.11499C11.8975 5.85249 9.7525 7.70499 7.56188 9.49562C8.56438 9.50812 9.57375 9.50812 10.5794 9.50124C11.7544 7.69812 12.9625 5.91812 14.1375 4.11437V4.11499ZM9.4175 10.4919C8.2425 12.2987 7.03188 14.0819 5.85563 15.8887C8.1025 14.1537 10.2375 12.2887 12.4413 10.5081C11.4319 10.4956 10.4231 10.4925 9.41688 10.4925L9.4175 10.4919Z" fill="#EEEEEE"/>
</g>
<defs>
<clipPath id="clip0_310_4">
<rect width="20" height="20" fill="white"/>
</clipPath>
</defs>
</svg>

<svg xmlns="http://www.w3.org/2000/svg" width="20" height="20" fill="none" xmlns:v="https://vecta.io/nano"><g clip-path="url(#A)"><path d="M9.948.013c-.837.003-1.67.107-2.481.316-3.9.97-6.996 4.502-7.392 8.508-.492 3.789 1.426 7.738 4.703 9.694 3.22 2.015 7.578 1.934 10.729-.185 2.832-1.839 4.593-5.189 4.489-8.572-.048-3.346-1.927-6.598-4.802-8.317C13.629.491 11.788.006 9.948.013h0zm-.056 1.413c4.121-.007 8.158 3.18 8.571 7.438.788 4.717-3.128 9.512-7.907 9.652-4.544.453-8.939-3.402-9.069-7.966-.338-3.694 2.1-7.363 5.583-8.584.898-.357 1.856-.54 2.823-.537l.001-.003zm4.245 2.689c-2.24 1.737-4.385 3.59-6.576 5.381l3.018.006 3.558-5.387v.001zm-4.72 6.377l-3.562 5.397c2.247-1.735 4.382-3.6 6.586-5.381l-3.024-.016.001-.001z" fill="#fff"/></g><defs><clipPath id="A"><path fill="#fff" d="M0 0h20v20H0z"/></clipPath></defs></svg>
